packages/ui/assets/svg/partner_optimism.svg

<svg class="partner-size" width="109" height="27" viewBox="0 0 109 27" fill="none" xmlns="http://www.w3.org/2000/svg">
<g id="partner_optimism" clip-path="url(#clip0_211_89)">
<g id="optimism-logo">
<g class="fill">
<path id="Path 238" d="M37.0923 7.84506C37.9979 7.8219 38.895 8.02735 39.7012 8.4426C40.4199 8.82537 41.0099 9.41299 41.3973 10.1317C41.8058 10.9091 42.0105 11.7783 41.992 12.6573C41.9873 13.1009 41.9448 13.5434 41.8651 13.9798C41.7038 14.9861 41.3163 15.9422 40.732 16.7754C40.1682 17.5769 39.4201 18.2298 38.5513 18.6787C37.6537 19.1406 36.6575 19.3761 35.649 19.3648C34.7357 19.3884 33.8309 19.183 33.0163 18.7672C32.2969 18.3888 31.7063 17.8031 31.3202 17.0853C30.9161 16.3099 30.714 15.4444 30.7325 14.5694C30.7362 14.1151 30.7786 13.662 30.8594 13.215C31.0209 12.2083 31.4087 11.2519 31.9934 10.4185C32.5577 9.61615 33.3091 8.96508 34.182 8.52227C35.0843 8.06619 36.0823 7.83397 37.0923 7.84506ZM36.9178 9.91654C35.989 9.90361 35.0912 10.2519 34.412 10.8885C33.6793 11.5819 33.1991 12.502 33.048 13.5018C32.9999 13.7969 32.9734 14.0951 32.9687 14.3941C32.9687 15.2864 33.2225 15.9902 33.73 16.5054C34.2375 17.0206 34.935 17.2782 35.8226 17.2782C36.4368 17.2833 37.0422 17.1326 37.583 16.84C38.1314 16.5396 38.5993 16.1105 38.947 15.5892C39.3278 15.0197 39.5771 14.3718 39.6765 13.693C39.7324 13.3939 39.7589 13.09 39.7558 12.7856C39.7558 11.8933 39.502 11.1925 38.9945 10.6832C38.487 10.1738 37.7948 9.91831 36.9178 9.91654ZM49.6214 10.3149C50.5941 10.3149 51.3686 10.6174 51.9448 11.2223C52.5211 11.8272 52.8092 12.6664 52.8092 13.7399C52.8077 14.1084 52.7758 14.4762 52.714 14.8394C52.5699 15.7002 52.2514 16.5222 51.7783 17.2543C51.3588 17.9064 50.7868 18.4453 50.1122 18.8239C49.472 19.1807 48.7516 19.3669 48.0196 19.3648C47.3769 19.3946 46.743 19.2066 46.2195 18.831C45.7633 18.4818 45.4544 17.9731 45.3543 17.4057L44.2925 23.4608H42.0563L44.341 10.4264H46.5763L46.2433 12.2589C46.5663 11.6689 47.0433 11.1786 47.6231 10.8407C48.2293 10.4864 48.9201 10.3046 49.6214 10.3149ZM47.6707 17.3898C48.3317 17.3997 48.972 17.1577 49.4628 16.7126C49.993 16.219 50.3399 15.5586 50.4461 14.8403C50.4761 14.6398 50.492 14.4375 50.4937 14.2348C50.5106 13.9705 50.4736 13.7056 50.385 13.4563C50.2963 13.2069 50.1579 12.9784 49.9782 12.7847C49.7875 12.6088 49.5637 12.4731 49.3199 12.3857C49.076 12.2983 48.8172 12.2609 48.5588 12.2757C47.8956 12.2705 47.2551 12.5182 46.7667 12.9689C46.233 13.4598 45.8855 14.1215 45.7834 14.8412C45.7526 15.0308 45.7367 15.2226 45.7358 15.4148C45.721 15.68 45.7606 15.9454 45.852 16.1947C45.9433 16.4439 46.0846 16.6717 46.2671 16.8639C46.4538 17.0419 46.6743 17.1802 46.9155 17.2706C47.1567 17.3609 47.4135 17.4015 47.6707 17.3898ZM56.5838 16.1779C56.5599 16.3039 56.5493 16.4321 56.5521 16.5603C56.5396 16.6704 56.5532 16.782 56.5918 16.8858C56.6304 16.9897 56.6928 17.0829 56.7741 17.1578C56.9943 17.288 57.2491 17.3464 57.5037 17.3252H58.3759L58.027 19.2541H56.8525C56.0172 19.2541 55.3776 19.0844 54.9335 18.7451C54.4894 18.4057 54.2674 17.848 54.2674 17.072C54.2698 16.7616 54.3016 16.4521 54.3626 16.1478L55.0287 12.3235H53.8083L54.1414 10.4273H55.3626L55.7432 8.24431H57.9953L57.6147 10.4273H59.5495L59.2165 12.3235H57.2658L56.5838 16.1779ZM61.532 8.11506C61.5282 7.91907 61.5674 7.72464 61.6469 7.54561C61.7264 7.36659 61.8442 7.20738 61.9919 7.07932C62.3114 6.79834 62.7254 6.65019 63.1497 6.66503C63.4574 6.64737 63.7604 6.74695 63.9982 6.94388C64.0993 7.03463 64.1794 7.14662 64.2327 7.27191C64.286 7.3972 64.3112 7.53273 64.3066 7.6689C64.3112 7.86308 64.273 8.05588 64.1949 8.23354C64.1168 8.4112 64.0006 8.56934 63.8546 8.69667C63.5365 8.97374 63.1254 9.11899 62.7047 9.103C62.3933 9.1222 62.0857 9.0258 61.8404 8.83211C61.739 8.74343 61.6587 8.63308 61.6054 8.50916C61.552 8.38523 61.5269 8.25088 61.532 8.11595V8.11506ZM63.5938 10.4256L62.0395 19.2541H59.8042L61.3584 10.4264L63.5938 10.4256ZM76.8207 10.2981C77.73 10.2981 78.4358 10.5451 78.938 11.039C79.4402 11.533 79.6913 12.2421 79.6913 13.1663C79.693 13.4867 79.6664 13.8066 79.612 14.1223L78.708 19.2541H76.4718L77.3441 14.3782C77.3748 14.1992 77.3907 14.018 77.3917 13.8364C77.406 13.6219 77.3752 13.4069 77.3015 13.2051C77.2277 13.0033 77.1125 12.8194 76.9635 12.6652C76.6351 12.3788 76.2081 12.2329 75.774 12.2589C75.196 12.2423 74.6329 12.4442 74.196 12.8246C73.7333 13.2668 73.4341 13.854 73.3475 14.4897L72.5069 19.2541H70.2707L71.143 14.3782C71.1736 14.1992 71.1895 14.018 71.1906 13.8364C71.2048 13.6219 71.1741 13.4069 71.1003 13.2051C71.0266 13.0033 70.9114 12.8194 70.7623 12.6652C70.434 12.3788 70.007 12.2329 69.5729 12.2589C68.9863 12.245 68.4165 12.4558 67.979 12.8485C67.5069 13.3065 67.2071 13.9145 67.1305 14.5694V14.4897L66.3058 19.2541H64.0537L65.6079 10.4264H67.8442L67.5578 12.0836C67.8729 11.5332 68.3305 11.0789 68.8821 10.769C69.4414 10.4545 70.0729 10.2925 70.7139 10.299C71.3399 10.2742 71.9572 10.4527 72.4743 10.808C72.9509 11.1655 73.2786 11.6878 73.3942 12.2739C73.7655 11.6774 74.2776 11.1821 74.885 10.8319C75.4712 10.4836 76.1397 10.2996 76.8207 10.299V10.2981ZM82.3875 8.11506C82.3837 7.91907 82.4229 7.72464 82.5024 7.54561C82.5819 7.36659 82.6997 7.20738 82.8474 7.07932C83.1669 6.79834 83.5809 6.65019 84.0052 6.66503C84.3128 6.64737 84.6158 6.74695 84.8537 6.94388C84.9548 7.03463 85.0349 7.14662 85.0882 7.27191C85.1414 7.3972 85.1667 7.53273 85.162 7.6689C85.1666 7.86308 85.1285 8.05588 85.0504 8.23354C84.9722 8.4112 84.856 8.56934 84.71 8.69667C84.3919 8.97374 83.9809 9.11899 83.5602 9.103C83.2488 9.1222 82.9412 9.0258 82.6959 8.83211C82.5945 8.74343 82.5142 8.63308 82.4608 8.50916C82.4075 8.38523 82.3824 8.25088 82.3875 8.11595V8.11506ZM84.4492 10.4256L82.895 19.2541H80.6588L82.213 10.4264L84.4492 10.4256ZM89.097 10.3149C90.2812 10.3149 91.1825 10.5831 91.8011 11.1196C92.1103 11.3918 92.3596 11.7258 92.5331 12.1003C92.7065 12.4749 92.8002 12.8816 92.8082 13.2946H90.6195C90.6235 13.0998 90.5842 12.9065 90.5047 12.7287C90.4251 12.551 90.3073 12.3932 90.1596 12.2669C89.7994 11.9966 89.3553 11.8639 88.9067 11.8924C88.5612 11.8762 88.2195 11.9711 87.9313 12.1633C87.813 12.2443 87.7169 12.3539 87.6518 12.482C87.5867 12.61 87.5546 12.7525 87.5586 12.8963C87.5571 13.0448 87.5992 13.1905 87.6796 13.3152C87.7599 13.4399 87.8751 13.538 88.0106 13.5974C88.4602 13.8103 88.9306 13.9759 89.4142 14.0914C89.9228 14.2356 90.4228 14.4085 90.9121 14.6092C91.2954 14.7719 91.637 15.0198 91.9112 15.3342C92.2031 15.6863 92.353 16.1354 92.3315 16.5931C92.3313 16.7966 92.3101 16.9995 92.2681 17.1986C92.2033 17.5218 92.0727 17.828 91.8843 18.098C91.696 18.368 91.454 18.5958 91.1737 18.7672C90.5711 19.1656 89.7675 19.3648 88.7631 19.3648C87.6106 19.3648 86.6878 19.1021 85.9947 18.5769C85.6559 18.3233 85.3822 17.9923 85.196 17.6113C85.0099 17.2303 84.9167 16.8103 84.9241 16.3859H87.1128C87.0911 16.5809 87.1216 16.7782 87.2011 16.9574C87.2805 17.1367 87.406 17.2914 87.5648 17.4057C87.973 17.6828 88.4607 17.8172 88.9525 17.7881C89.2989 17.8119 89.6422 17.7098 89.9199 17.5004C90.027 17.4115 90.1127 17.2994 90.1704 17.1724C90.2281 17.0455 90.2563 16.907 90.253 16.7675C90.2558 16.6585 90.2353 16.5502 90.1929 16.4499C90.1505 16.3495 90.0871 16.2595 90.0072 16.1858C89.8301 16.0238 89.6225 15.8992 89.3966 15.8194C89.1534 15.7291 88.8045 15.6202 88.3498 15.4927C87.8546 15.3586 87.3674 15.196 86.8907 15.0058C86.5234 14.8537 86.1972 14.6162 85.9392 14.3127C85.6635 13.9716 85.5224 13.5405 85.5427 13.1017C85.5436 12.9095 85.5595 12.7177 85.5903 12.528C85.6499 12.1997 85.7775 11.8877 85.9648 11.6122C86.1521 11.3366 86.3949 11.1036 86.6775 10.9284C87.2855 10.5194 88.0917 10.3149 89.0961 10.3149H89.097ZM106.13 10.299C107.04 10.299 107.745 10.5459 108.248 11.0399C108.75 11.5339 109.001 12.243 109.001 13.1672C109.003 13.4876 108.976 13.8075 108.922 14.1232L108.017 19.2541H105.78L106.653 14.3782C106.683 14.1992 106.699 14.018 106.7 13.8364C106.715 13.6219 106.684 13.4069 106.61 13.2051C106.536 13.0033 106.421 12.8194 106.272 12.6652C105.944 12.3788 105.517 12.2329 105.083 12.2589C104.505 12.2423 103.942 12.4442 103.505 12.8246C103.042 13.2668 102.743 13.854 102.656 14.4897L101.816 19.2541H99.5794L100.452 14.3782C100.482 14.1992 100.498 14.018 100.499 13.8364C100.514 13.6219 100.483 13.4069 100.409 13.2051C100.335 13.0033 100.22 12.8194 100.071 12.6652C99.7426 12.3788 99.3157 12.2329 98.8815 12.2589C98.295 12.245 97.7252 12.4558 97.2876 12.8485C96.8156 13.3065 96.5158 13.9145 96.4391 14.5694V14.4897L95.6144 19.2541H93.3624L94.9157 10.4264H97.152L96.8656 12.0836C97.1807 11.5332 97.6383 11.0789 98.1899 10.769C98.7492 10.4545 99.3807 10.2925 100.022 10.299C100.648 10.2742 101.265 10.4527 101.782 10.808C102.259 11.1655 102.586 11.6878 102.702 12.2739C103.073 11.6774 103.585 11.1821 104.193 10.8319C104.779 10.4835 105.448 10.2995 106.129 10.299H106.13Z" fill="black"></path>
</g>
<g id="optimism-logo-circle">
<path id="Ellipse 11" d="M13.4367 27C20.8575 27 26.8733 20.9558 26.8733 13.5C26.8733 6.04416 20.8575 0 13.4367 0C6.0158 0 0 6.04416 0 13.5C0 20.9558 6.0158 27 13.4367 27Z" fill="#FF0420"></path>
<path id="Path 139" d="M9.51602 17.0802C8.81691 17.1102 8.12704 16.9111 7.5503 16.513C7.30114 16.3218 7.1021 16.0725 6.97038 15.7866C6.83866 15.5008 6.77823 15.187 6.79432 14.8724C6.79739 14.6891 6.81426 14.5063 6.84476 14.3255C6.93214 13.8386 7.05645 13.2546 7.21769 12.5734C7.67468 10.7166 8.85402 9.78819 10.7557 9.78819C11.2324 9.78035 11.7056 9.86995 12.1467 10.0516C12.5383 10.2057 12.8752 10.4737 13.1144 10.8213C13.3556 11.1794 13.4789 11.6045 13.4668 12.0367C13.4634 12.2166 13.4465 12.396 13.4164 12.5734C13.3155 13.1743 13.1946 13.7584 13.0536 14.3255C12.8186 15.2505 12.4121 15.9425 11.834 16.4017C11.2564 16.854 10.4838 17.0802 9.51602 17.0802ZM9.65721 15.6217C10.0063 15.6314 10.347 15.5126 10.615 15.2876C10.9111 15.0177 11.1126 14.6589 11.1894 14.2647C11.3441 13.6302 11.4615 13.0766 11.5419 12.6037C11.5689 12.4601 11.5824 12.3143 11.5822 12.1682C11.5822 11.5537 11.263 11.2465 10.6247 11.2466C10.2727 11.2382 9.92938 11.3567 9.65699 11.5808C9.36628 11.8535 9.16871 12.2115 9.09243 12.6037C8.97143 13.0561 8.8505 13.6097 8.72964 14.2647C8.70229 14.4048 8.68879 14.5472 8.68933 14.69C8.68933 15.3112 9.01196 15.6217 9.65721 15.6217Z" fill="white"></path>
<path id="Path 140" d="M13.9312 16.979C13.8992 16.9809 13.8671 16.9755 13.8375 16.9632C13.8078 16.951 13.7813 16.9322 13.7598 16.9082C13.7263 16.8537 13.7154 16.7882 13.7296 16.7258L15.1207 10.1427C15.133 10.07 15.1724 10.0048 15.2308 9.96032C15.2848 9.91554 15.3524 9.89056 15.4224 9.88951H18.1038C18.7351 9.85838 19.3609 10.0209 19.8982 10.3554C20.1191 10.5007 20.2984 10.7014 20.4186 10.9376C20.5388 11.1739 20.5957 11.4375 20.5837 11.7025C20.5827 11.8798 20.5624 12.0564 20.5231 12.2292C20.4119 12.9116 20.0483 13.5266 19.505 13.951C19.001 14.3224 18.3088 14.5081 17.4285 14.5081H16.0678L15.6042 16.726C15.5918 16.7987 15.5525 16.8639 15.494 16.9084C15.4401 16.9531 15.3726 16.9781 15.3026 16.9792L13.9312 16.979ZM17.4996 13.11C17.7637 13.1159 18.0224 13.034 18.2355 12.8772C18.4548 12.7154 18.6059 12.477 18.6589 12.2088C18.6776 12.1086 18.6877 12.007 18.6891 11.905C18.6948 11.8226 18.6824 11.74 18.6528 11.6629C18.6232 11.5859 18.5771 11.5164 18.5177 11.4593C18.3495 11.3345 18.1412 11.2767 17.9331 11.2973H16.7236L16.3405 13.11H17.4996Z" fill="white"></path>
</g>
</g>
</g>
<defs>
<clipPath id="clip0_211_89">
<rect width="109" height="27" fill="white"></rect>
</clipPath>
</defs>
</svg>

<svg class="partner-size" width="109" height="27" viewBox="0 0 109 27" fill="none" xmlns="http://www.w3.org/2000/svg"><g clip-path="url(#clip0_211_89)"><path d="M37.092 7.845a5.396 5.396 0 0 1 2.61.598c.718.382 1.308.97 1.695 1.689.409.777.614 1.646.595 2.525a7.823 7.823 0 0 1-.127 1.323 6.722 6.722 0 0 1-1.133 2.795 6.078 6.078 0 0 1-2.18 1.904 6.191 6.191 0 0 1-2.903.686 5.479 5.479 0 0 1-2.633-.598 4.087 4.087 0 0 1-1.696-1.682 5.206 5.206 0 0 1-.587-2.516 7.98 7.98 0 0 1 .126-1.354 6.723 6.723 0 0 1 1.134-2.796 5.988 5.988 0 0 1 2.189-1.897 6.298 6.298 0 0 1 2.91-.677Zm-.174 2.072a3.59 3.59 0 0 0-2.506.972 4.53 4.53 0 0 0-1.364 2.613 6.147 6.147 0 0 0-.08.892c0 .892.254 1.596.762 2.111.508.516 1.205.773 2.093.773a3.635 3.635 0 0 0 1.76-.438c.548-.3 1.016-.73 1.364-1.25.38-.57.63-1.218.73-1.897.055-.3.082-.603.079-.907 0-.893-.254-1.593-.761-2.103-.508-.51-1.2-.765-2.077-.766Zm12.703.398c.973 0 1.748.302 2.324.907.576.605.864 1.444.864 2.518a6.718 6.718 0 0 1-.095 1.1 6.395 6.395 0 0 1-.936 2.414 4.74 4.74 0 0 1-1.666 1.57c-.64.357-1.36.543-2.092.54a2.86 2.86 0 0 1-1.8-.533 2.297 2.297 0 0 1-.866-1.425l-1.062 6.055h-2.236l2.285-13.035h2.235l-.333 1.833c.323-.59.8-1.08 1.38-1.418a3.848 3.848 0 0 1 1.998-.526Zm-1.95 7.075a2.61 2.61 0 0 0 1.792-.677c.53-.494.877-1.154.983-1.873.03-.2.046-.402.048-.605a1.953 1.953 0 0 0-.516-1.45 1.933 1.933 0 0 0-1.42-.51 2.612 2.612 0 0 0-1.791.694 3.143 3.143 0 0 0-.984 1.872c-.03.19-.046.382-.047.574a1.95 1.95 0 0 0 .531 1.449 1.912 1.912 0 0 0 1.404.526Zm8.913-1.212a1.837 1.837 0 0 0-.032.382.706.706 0 0 0 .222.598c.22.13.475.188.73.167h.872l-.349 1.93h-1.175c-.835 0-1.474-.17-1.918-.51-.445-.34-.667-.897-.667-1.673.003-.31.035-.62.096-.924l.666-3.825h-1.22l.332-1.896h1.222l.38-2.183h2.252l-.38 2.183h1.934l-.332 1.896h-1.951l-.682 3.855Zm4.948-8.063a1.34 1.34 0 0 1 .46-1.036c.32-.28.733-.429 1.158-.414.307-.018.61.082.848.279a.93.93 0 0 1 .309.725 1.325 1.325 0 0 1-.452 1.028c-.319.277-.73.422-1.15.406a1.269 1.269 0 0 1-.865-.27.903.903 0 0 1-.308-.717Zm2.062 2.31-1.555 8.83h-2.235l1.554-8.829h2.236Zm13.227-.127c.909 0 1.615.247 2.117.741s.753 1.203.753 2.127c.002.32-.025.64-.079.956l-.904 5.132h-2.236l.872-4.876c.03-.179.047-.36.048-.542a1.541 1.541 0 0 0-.428-1.17 1.659 1.659 0 0 0-1.19-.407 2.302 2.302 0 0 0-1.578.566 2.832 2.832 0 0 0-.849 1.665l-.84 4.764H70.27l.872-4.876c.03-.179.046-.36.048-.542a1.541 1.541 0 0 0-.429-1.17 1.658 1.658 0 0 0-1.19-.407 2.304 2.304 0 0 0-1.593.59 2.86 2.86 0 0 0-.849 1.72v-.08l-.824 4.765h-2.252l1.554-8.828h2.236l-.286 1.658a3.504 3.504 0 0 1 1.324-1.315 3.661 3.661 0 0 1 1.832-.47 2.905 2.905 0 0 1 1.76.509c.477.357.805.88.92 1.466a4.267 4.267 0 0 1 1.491-1.442 3.796 3.796 0 0 1 1.936-.533Zm5.567-2.183a1.34 1.34 0 0 1 .46-1.036c.319-.28.733-.429 1.157-.414.308-.018.61.082.849.279a.93.93 0 0 1 .308.725 1.325 1.325 0 0 1-.452 1.028c-.318.277-.73.422-1.15.406a1.269 1.269 0 0 1-.864-.27.904.904 0 0 1-.308-.717Zm2.061 2.31-1.554 8.83h-2.236l1.554-8.829h2.236Zm4.648-.11c1.184 0 2.086.268 2.704.805a2.97 2.97 0 0 1 1.007 2.175H90.62a1.32 1.32 0 0 0-.46-1.028 1.888 1.888 0 0 0-1.252-.375 1.621 1.621 0 0 0-.976.271.856.856 0 0 0-.372.733.759.759 0 0 0 .452.701c.45.213.92.379 1.403.494.509.145 1.009.318 1.498.518.383.163.725.41 1 .725.291.352.441.801.42 1.26 0 .203-.022.405-.064.605a2.394 2.394 0 0 1-1.094 1.568c-.603.399-1.407.598-2.41.598-1.153 0-2.076-.263-2.77-.788a2.67 2.67 0 0 1-1.07-2.191h2.189a1.108 1.108 0 0 0 .452 1.02c.408.277.896.411 1.388.382.346.024.69-.078.967-.288a.922.922 0 0 0 .333-.733.765.765 0 0 0-.246-.581 1.786 1.786 0 0 0-.61-.367c-.244-.09-.593-.199-1.047-.326a13.362 13.362 0 0 1-1.46-.487 2.509 2.509 0 0 1-.95-.693 1.795 1.795 0 0 1-.397-1.211c0-.193.016-.384.047-.574a2.387 2.387 0 0 1 1.087-1.6c.608-.409 1.415-.613 2.42-.613Zm17.033-.016c.91 0 1.615.247 2.118.74.502.495.753 1.204.753 2.128.002.32-.025.64-.079.956l-.905 5.131h-2.237l.873-4.876c.03-.179.046-.36.047-.542a1.525 1.525 0 0 0-.428-1.17 1.657 1.657 0 0 0-1.189-.407 2.302 2.302 0 0 0-1.578.566 2.833 2.833 0 0 0-.849 1.665l-.84 4.764h-2.237l.873-4.876c.03-.179.046-.36.047-.542a1.525 1.525 0 0 0-.428-1.17 1.659 1.659 0 0 0-1.19-.407 2.305 2.305 0 0 0-1.593.59 2.862 2.862 0 0 0-.849 1.72v-.08l-.825 4.765h-2.252l1.554-8.828h2.236l-.286 1.658a3.504 3.504 0 0 1 1.324-1.315 3.661 3.661 0 0 1 1.832-.47 2.904 2.904 0 0 1 1.76.509c.477.357.804.88.92 1.466a4.26 4.26 0 0 1 1.491-1.442 3.794 3.794 0 0 1 1.936-.533h.001Z" fill="#000" class="fill"/><path d="M13.437 27c7.42 0 13.436-6.044 13.436-13.5S20.858 0 13.437 0 0 6.044 0 13.5 6.016 27 13.437 27Z" fill="#FF0420"/><path d="M9.516 17.08c-.7.03-1.389-.169-1.966-.567a1.937 1.937 0 0 1-.756-1.64c.003-.184.02-.367.05-.547.088-.487.212-1.071.374-1.753.457-1.856 1.636-2.785 3.538-2.785.476-.008.95.082 1.39.264.392.154.73.422.968.77.242.357.365.783.353 1.215-.004.18-.02.359-.05.536-.101.601-.222 1.185-.363 1.752-.235.926-.642 1.618-1.22 2.077-.578.452-1.35.678-2.318.678Zm.141-1.458c.35.01.69-.11.958-.334.296-.27.498-.63.574-1.023.155-.635.272-1.188.353-1.661.027-.144.04-.29.04-.436 0-.614-.319-.921-.957-.921a1.468 1.468 0 0 0-.968.334 1.9 1.9 0 0 0-.565 1.023 22.056 22.056 0 0 0-.362 1.66c-.028.14-.041.283-.04.426 0 .621.322.932.967.932ZM13.931 16.979a.212.212 0 0 1-.171-.07.245.245 0 0 1-.03-.183l1.39-6.583a.29.29 0 0 1 .11-.183.307.307 0 0 1 .192-.07h2.682a3.105 3.105 0 0 1 1.794.465 1.524 1.524 0 0 1 .686 1.348 2.437 2.437 0 0 1-.06.526 2.745 2.745 0 0 1-1.019 1.722c-.504.371-1.196.557-2.076.557h-1.361l-.464 2.218a.29.29 0 0 1-.11.182.307.307 0 0 1-.191.071H13.93ZM17.5 13.11c.264.006.522-.076.735-.233.22-.162.37-.4.424-.668.019-.1.029-.202.03-.304a.566.566 0 0 0-.171-.446.842.842 0 0 0-.585-.162h-1.21l-.383 1.813h1.16Z" fill="#fff"/></g><defs><clipPath id="clip0_211_89"><path fill="#fff" d="M0 0h109v27H0z"/></clipPath></defs></svg>
